app/client/src/assets/icons/blueprintjs/20px/search-text.svg

<svg xmlns="http://www.w3.org/2000/svg" xml:space="preserve" viewBox="0 0 20 20"><path fill-rule="evenodd" d="m19.56 17.44-3.23-3.23A8.939 8.939 0 0 0 18 9a9 9 0 1 0-9 9c1.94 0 3.74-.62 5.21-1.67l3.23 3.23a1.498 1.498 0 1 0 2.12-2.12zM9 16c-3.87 0-7-3.13-7-7s3.13-7 7-7 7 3.13 7 7-3.13 7-7 7zm3.5-11h-7c-.28 0-.5.22-.5.5v2c0 .28.22.5.5.5s.5-.22.5-.5V7h2v6h-.5c-.28 0-.5.22-.5.5s.22.5.5.5h3c.28 0 .5-.22.5-.5s-.22-.5-.5-.5H10V7h2v.5c0 .28.22.5.5.5s.5-.22.5-.5v-2c0-.28-.22-.5-.5-.5z" clip-rule="evenodd"/></svg>

<?xml version="1.0" encoding="utf-8"?>
<!-- Generator: Adobe Illustrator 17.1.0, SVG Export Plug-In . SVG Version: 6.00 Build 0)  -->
<!DOCTYPE svg PUBLIC "-//W3C//DTD SVG 1.1//EN" "http://www.w3.org/Graphics/SVG/1.1/DTD/svg11.dtd">
<svg version="1.1" id="Layer_1" xmlns="http://www.w3.org/2000/svg" xmlns:xlink="http://www.w3.org/1999/xlink" x="0px" y="0px"
	 viewBox="0 0 20 20" enable-background="new 0 0 20 20" xml:space="preserve">
<g id="search_text_1_">
	<g>
		<path fill-rule="evenodd" clip-rule="evenodd" d="M19.56,17.44l-3.23-3.23C17.38,12.74,18,10.94,18,9c0-4.97-4.03-9-9-9
			S0,4.03,0,9c0,4.97,4.03,9,9,9c1.94,0,3.74-0.62,5.21-1.67l3.23,3.23C17.71,19.83,18.09,20,18.5,20c0.83,0,1.5-0.67,1.5-1.5
			C20,18.09,19.83,17.71,19.56,17.44z M9,16c-3.87,0-7-3.13-7-7c0-3.87,3.13-7,7-7s7,3.13,7,7C16,12.87,12.87,16,9,16z M12.5,5h-7
			C5.22,5,5,5.22,5,5.5v2C5,7.78,5.22,8,5.5,8S6,7.78,6,7.5V7h2v6H7.5C7.22,13,7,13.22,7,13.5C7,13.78,7.22,14,7.5,14h3
			c0.28,0,0.5-0.22,0.5-0.5c0-0.28-0.22-0.5-0.5-0.5H10V7h2v0.5C12,7.78,12.22,8,12.5,8S13,7.78,13,7.5v-2C13,5.22,12.78,5,12.5,5z"
			/>
	</g>
</g>
</svg>
